Papirus/16x16/actions/view-barcode-add.svg

<?xml version="1.0" encoding="UTF-8" standalone="no"?>
<svg xmlns="http://www.w3.org/2000/svg" viewBox="0 0 16 16">
  <defs>
    <style type="text/css" id="current-color-scheme">
      .ColorScheme-Text {
        color:#5c616c;
      }
      </style>
  </defs>
  <path style="fill:currentColor;opacity:1" class="ColorScheme-Text" d="M 1 1.0039062 L 1 14.003906 L 3 14.003906 L 3 1.0039062 L 1 1.0039062 z M 4 1.0039062 L 4 7.0039062 L 5 7.0039062 L 5 1.0039062 L 4 1.0039062 z M 6 1.0039062 L 6 14.003906 L 7 14.003906 L 7 1.0039062 L 6 1.0039062 z M 8 1.0039062 L 8 9.0039062 L 9 9.0039062 L 9 1.0039062 L 8 1.0039062 z M 10 1.0039062 L 10 7.0039062 L 11 7.0039062 L 11 1.0039062 L 10 1.0039062 z M 12 1.0039062 L 12 7.0039062 L 15 7.0039062 L 15 1.0039062 L 12 1.0039062 z M 11 8.0039062 A 1.000075 1.000075 0 0 0 10 9.0039062 L 10 10.003906 L 9 10.003906 A 1.000075 1.000075 0 0 0 8 11.003906 L 8 12.003906 A 1.000075 1.000075 0 0 0 9 13.003906 L 10 13.003906 L 10 14.003906 A 1.000075 1.000075 0 0 0 11 15.003906 L 12 15.003906 A 1.000075 1.000075 0 0 0 13 14.003906 L 13 13.003906 L 14 13.003906 A 1.000075 1.000075 0 0 0 15 12.003906 L 15 11.003906 A 1.000075 1.000075 0 0 0 14 10.003906 L 13 10.003906 L 13 9.0039062 A 1.000075 1.000075 0 0 0 12 8.0039062 L 11 8.0039062 z "/>
</svg>

<?xml version="1.0" encoding="UTF-8" standalone="no"?>
<!--Created with Inkscape (http://www.inkscape.org/)-->
<svg id="svg3049" xmlns:rdf="http://www.w3.org/1999/02/22-rdf-syntax-ns#" xmlns="http://www.w3.org/2000/svg" height="16" width="16" version="1.1" xmlns:cc="http://creativecommons.org/ns#" xmlns:dc="http://purl.org/dc/elements/1.1/">
 <defs id="defs3051">
 </defs>
 <metadata id="metadata3054">
  <rdf:RDF>
   <cc:Work rdf:about="">
    <dc:format>image/svg+xml</dc:format>
    <dc:type rdf:resource="http://purl.org/dc/dcmitype/StillImage"/>
    <dc:title/>
   </cc:Work>
  </rdf:RDF>
 </metadata>
 <g id="layer1" transform="translate(-421.71 -531.79)">
  <g id="layer1-0" transform="matrix(.75 0 0 .75 421.46 -241.23)">
   <g id="layer1-6" transform="translate(6.2938e-7 -.00020410)">
    <path id="path4148" opacity="1" fill="#5c616c" style="fill-rendering:auto;text-decoration-fill:#5c616c;fill:#5c616c;isolation:auto;mix-blend-mode:normal;shape-rendering:auto;solid-fill:#5c616c;block-progression:tb;text-decoration-line:none;image-rendering:auto;white-space:normal;text-indent:0;text-transform:none;text-decoration-style:solid" transform="matrix(1.3333 0 0 1.3333 .33333 1030.7)" d="m1 1v13h2v-13h-2zm3 0v6h1v-6h-1zm2 0v13h1v-13h-1zm2 0v8h1v-8h-1zm2 0v6h1v-6h-1zm2 0v6h3v-6h-3zm-1 7a1.0001 1.0001 0 0 0 -1 1v1h-1a1.0001 1.0001 0 0 0 -1 1v1a1.0001 1.0001 0 0 0 1 1h1v1a1.0001 1.0001 0 0 0 1 1h1a1.0001 1.0001 0 0 0 1 -1v-1h1a1.0001 1.0001 0 0 0 1 -1v-1a1.0001 1.0001 0 0 0 -1 -1h-1v-1a1.0001 1.0001 0 0 0 -1 -1h-1z"/>
   </g>
  </g>
 </g>
</svg>
